src/actions/22/kdenlive-zindex-top.svg

<svg xmlns="http://www.w3.org/2000/svg" viewBox="0 0 22 22">
  <defs id="defs3051">
    <style type="text/css" id="current-color-scheme">
      .ColorScheme-Text {
        color:#363636;
      }
      </style>
  </defs>
 <path 
     style="fill:currentColor;fill-opacity:1;stroke:none" 
     d="M 3 3 L 3 4 L 19 4 L 19 3 L 3 3 z M 15.5 5 L 15.28125 5.2148438 L 12 8.4453125 L 12.71875 9.1542969 L 15 6.9082031 L 15 15.060547 L 15 19 L 16 19 L 16 15.060547 L 16 6.9082031 L 18.28125 9.1542969 L 19 8.4453125 L 15.71875 5.2148438 L 15.5 5 z M 3 8 L 3 9 L 11 9 L 11 8 L 3 8 z M 3 13 L 3 14 L 11 14 L 11 13 L 3 13 z M 3 18 L 3 19 L 11 19 L 11 18 L 3 18 z "
     class="ColorScheme-Text"
     />
</svg>

<svg xmlns="http://www.w3.org/2000/svg" viewBox="0 0 22 22">
    <path d="M3 3v1h16V3H3zm12.5 2-.219.215L12 8.445l.719.71L15 6.907V19h1V6.908l2.281 2.246.719-.709-3.281-3.23L15.5 5zM3 8v1h8V8H3zm0 5v1h8v-1H3zm0 5v1h8v-1H3z" style="fill:currentColor;fill-opacity:1;stroke:none;color:#050505;opacity:.7"/>
</svg>
